src/lib/packages/icons/src/assets/line/arrow-up-right-circle.svg

<svg width="24" height="24" viewBox="0 0 24 24" fill="none" xmlns="http://www.w3.org/2000/svg">
<path d="M12 1.25C6.072 1.25 1.25 6.072 1.25 12C1.25 17.928 6.072 22.75 12 22.75C17.928 22.75 22.75 17.928 22.75 12C22.75 6.072 17.928 1.25 12 1.25ZM12 21.25C6.899 21.25 2.75 17.101 2.75 12C2.75 6.899 6.899 2.75 12 2.75C17.101 2.75 21.25 6.899 21.25 12C21.25 17.101 17.101 21.25 12 21.25ZM15.6919 8.71289C15.7299 8.80489 15.75 8.902 15.75 9V13C15.75 13.414 15.414 13.75 15 13.75C14.586 13.75 14.25 13.414 14.25 13V10.811L9.53003 15.531C9.38403 15.677 9.192 15.751 9 15.751C8.808 15.751 8.61597 15.678 8.46997 15.531C8.17697 15.238 8.17697 14.763 8.46997 14.47L13.1899 9.75H11C10.586 9.75 10.25 9.414 10.25 9C10.25 8.586 10.586 8.25 11 8.25H15C15.098 8.25 15.1951 8.27011 15.2871 8.30811C15.4701 8.38411 15.6159 8.52989 15.6919 8.71289Z" fill="currentColor"/>
</svg>

<svg xmlns="http://www.w3.org/2000/svg" width="24" height="24" fill="none"><path fill="currentColor" d="M12 1.25C6.072 1.25 1.25 6.072 1.25 12S6.072 22.75 12 22.75 22.75 17.928 22.75 12 17.928 1.25 12 1.25Zm0 20c-5.101 0-9.25-4.149-9.25-9.25S6.899 2.75 12 2.75s9.25 4.149 9.25 9.25-4.149 9.25-9.25 9.25Zm3.692-12.537A.75.75 0 0 1 15.75 9v4a.75.75 0 0 1-1.5 0v-2.189l-4.72 4.72a.748.748 0 0 1-1.06 0 .75.75 0 0 1 0-1.061l4.72-4.72H11a.75.75 0 0 1 0-1.5h4a.751.751 0 0 1 .692.463Z"/></svg>
